img/icons/svg/contracts__icon-6.svg

<svg width="35" height="35" fill="none" xmlns="http://www.w3.org/2000/svg">
  <path d="M31.66 14.2577H31.1642V13.7532C31.1642 6.1697 24.9945 0 17.4109 0C9.82726 0 3.65772 6.1697 3.65772 13.7533V14.2579H3.16199C1.41849 14.2579 0 15.6763 0 17.4198V22.0448C0 23.7883 1.41849 25.2068 3.16199 25.2068H4.92486C5.26011 25.2068 5.54752 25.0038 5.67219 24.7144C7.75973 28.8687 10.7972 31.6155 10.9982 31.7946C11.1066 31.8911 11.2436 31.9404 11.3815 31.9404C11.3823 31.9404 11.3831 31.9407 11.3842 31.9404C11.7024 31.9404 11.9604 31.6824 11.9604 31.3643C11.9604 31.2886 11.9459 31.2165 11.9194 31.1502C11.9045 31.0973 11.8787 31.0026 11.8456 30.8734C13.2659 32.6565 14.7902 33.7109 15.9473 34.3161C16.8024 34.7635 17.766 35 18.734 35C19.702 35 20.6658 34.7635 21.5209 34.3161C22.6258 33.7381 24.0649 32.7478 25.4289 31.1079C28.0079 30.1682 29.9731 27.9404 30.5422 25.2068H31.66C33.4035 25.2068 34.822 23.7883 34.822 22.0448V17.4198C34.822 15.6762 33.4035 14.2577 31.66 14.2577ZM6.2789 8.95087C8.14283 4.64705 12.4301 1.62746 17.4109 1.62746C22.9013 1.62746 27.5483 5.29657 29.036 10.3106C28.3871 9.68648 27.6779 9.32925 27.0531 9.20166C26.6106 7.94038 25.9588 7.15806 25.8151 6.99564C25.5427 6.6293 23.0059 3.41913 17.8083 3.41913C16.0279 3.41913 14.1252 3.80516 12.1537 4.56665C10.7473 5.10974 8.20712 6.38013 6.2789 8.95087ZM20.9868 33.2952C20.2959 33.6567 19.517 33.8478 18.734 33.8478C17.9512 33.8478 17.1723 33.6567 16.4815 33.2952C15.0649 32.5541 13.0405 31.0685 11.4414 28.2005C11.4096 28.1437 11.3803 28.0851 11.3494 28.0276C11.1364 25.8307 11.2884 23.0478 13.0332 21.5831C14.3843 20.4489 16.658 19.9208 18.8569 19.4101C21.6101 18.7706 24.4409 18.1118 26.0005 16.2481C26.4907 16.7072 26.9035 17.2916 27.0674 18.021C27.6266 20.5099 26.9091 22.6427 26.8988 22.6726C26.8209 22.8969 26.8883 23.1459 27.0687 23.3002C27.1755 23.3913 27.3086 23.4382 27.4431 23.4382C27.5363 23.4382 27.6302 23.4156 27.716 23.3694C27.722 23.3661 27.7362 23.3581 27.7539 23.348C27.3923 25.0362 26.8464 26.7309 26.027 28.2005C25.7822 28.6394 25.5269 29.0422 25.2658 29.4186C24.4775 29.7671 23.607 29.962 22.6912 29.962H21.8488C21.5173 29.0744 20.6634 28.4394 19.6615 28.4394H17.4366C16.1483 28.4394 15.1002 29.4875 15.1002 30.7758C15.1002 32.0641 16.1483 33.1121 17.4366 33.1121H19.6615C20.6634 33.1121 21.5175 32.4771 21.8488 31.5895H22.6912C22.9394 31.5895 23.1848 31.5778 23.4271 31.5556C22.548 32.3723 21.6919 32.9263 20.9868 33.2952ZM27.57 27.6932C28.3046 26.0773 28.78 24.3084 29.0832 22.5992V23.5699C29.0832 25.1402 28.5129 26.5792 27.57 27.6932Z" fill="#304BAB"/>
</svg>

<svg width="35" height="35" fill="none" xmlns="http://www.w3.org/2000/svg"><path d="M31.66 14.258h-.496v-.505C31.164 6.17 24.994 0 17.411 0 9.827 0 3.658 6.17 3.658 13.753v.505h-.496A3.166 3.166 0 000 17.42v4.625a3.166 3.166 0 003.162 3.162h1.763a.814.814 0 00.747-.493c2.088 4.155 5.125 6.902 5.326 7.08a.576.576 0 00.384.146h.002a.576.576 0 00.535-.79c-.014-.053-.04-.147-.073-.277 1.42 1.784 2.944 2.838 4.101 3.443a6.034 6.034 0 002.787.684c.968 0 1.932-.236 2.787-.684 1.105-.578 2.544-1.568 3.908-3.208a8.05 8.05 0 005.113-5.901h1.118a3.166 3.166 0 003.162-3.162V17.42a3.166 3.166 0 00-3.162-3.162zM6.279 8.95C8.143 4.647 12.43 1.627 17.41 1.627c5.49 0 10.137 3.67 11.625 8.684-.649-.625-1.358-.982-1.983-1.11-.442-1.26-1.094-2.043-1.238-2.205-.272-.367-2.81-3.577-8.007-3.577-1.78 0-3.683.386-5.654 1.148-1.407.543-3.947 1.813-5.875 4.384zm14.708 24.344a4.878 4.878 0 01-4.505 0c-1.417-.74-3.441-2.227-5.04-5.095-.032-.056-.062-.115-.093-.172-.213-2.197-.06-4.98 1.684-6.445 1.351-1.134 3.625-1.662 5.824-2.173 2.753-.64 5.584-1.298 7.143-3.162.49.46.904 1.044 1.067 1.773.56 2.489-.158 4.622-.168 4.652a.577.577 0 00.855.675c-.362 1.688-.908 3.383-1.727 4.853-.245.438-.5.841-.761 1.218a6.35 6.35 0 01-2.575.543h-.842a2.338 2.338 0 00-2.188-1.523h-2.224a2.339 2.339 0 00-2.337 2.337 2.339 2.339 0 002.337 2.336h2.224a2.338 2.338 0 002.188-1.523h.842c.248 0 .494-.011.736-.033a11.357 11.357 0 01-2.44 1.74zm6.583-5.602c.735-1.616 1.21-3.385 1.513-5.094v.97c0 1.571-.57 3.01-1.513 4.124z" fill="#304BAB"/></svg>
